# https://strudel.cc/#JDogIjggNyA2IDUgNCAzIDIgMSIKICAuc2NhbGUoIkc6bWlub3IiKS5ub3RlKCkKICAuYXR0YWNrKC4xKS5kZWNheSguMSkuc3VzdGFpbiguMSkucmVsZWFzZSguMSkKICAucm9vbSgxLjUpCgokOiAiWzYgOCAyIDRdLzIiCiAgLnNjYWxlKCJHOm1pbm9yIikubm90ZSgpCiAgLmF0dGFjayguMSkuZGVjYXkoLjEpLnN1c3RhaW4oMSkucmVsZWFzZSguMSkKICAucm9vbSgxLjUpCg%3D%3D

$: "8 7 6 5 4 3 2 1"
  .scale("G:minor").note()
  .attack(.1).decay(.1).sustain(.1).release(.1)
  .room(1.5)

$: "[6 8 2 4]/2"
  .scale("G:minor").note()
  .attack(.1).decay(.1).sustain(1).release(.1)
  .room(1.5)
